svgs/sharp-regular/child-reaching.svg

<svg xmlns="http://www.w3.org/2000/svg" viewBox="0 0 384 512"><!--! Font Awesome Pro 6.6.0 by @fontawesome - https://fontawesome.com License - https://fontawesome.com/license (Commercial License) Copyright 2024 Fonticons, Inc. --><path d="M192 48a24 24 0 1 1 0 48 24 24 0 1 1 0-48zm0 96A72 72 0 1 0 192 0a72 72 0 1 0 0 144zM96.5 224l14 0 1.5 0 0 264 0 24 48 0 0-24 0-104 64 0 0 104 0 24 48 0 0-24 0-264 13.8 0 6.9-11.9 56-96 12.1-20.7L319.4 71.2 307.3 91.9 258.2 176l-133.7 0L76.9 92.2 65 71.3 23.3 95l11.8 20.9 54.5 96L96.5 224zM224 336l-64 0 0-112 64 0 0 112z"/></svg>

<svg xmlns="http://www.w3.org/2000/svg" viewBox="0 0 384 512"><!--! Font Awesome Pro 6.4.2 by @fontawesome - https://fontawesome.com License - https://fontawesome.com/license (Commercial License) Copyright 2023 Fonticons, Inc. --><path d="M192 48a24 24 0 1 1 0 48 24 24 0 1 1 0-48zm0 96A72 72 0 1 0 192 0a72 72 0 1 0 0 144zM96.5 224h14H112V488v24h48V488 384h64V488v24h48V488 224h13.8l6.9-11.9 56-96 12.1-20.7L319.4 71.2 307.3 91.9 258.2 176H124.5L76.9 92.2 65 71.3 23.3 95l11.8 20.9 54.5 96L96.5 224zM224 336H160V224h64V336z"/></svg>
